svg/alphabet_cyrillic.svg

<svg xmlns="http://www.w3.org/2000/svg" viewBox="0 0 24 24"><path d="M16 6c-1.64 0-3 1.36-3 3v6c0 1.65 1.36 3 3 3h1c1.65 0 3-1.35 3-3v-3c0-1.64-1.35-3-3-3h-2c0-.56.44-1 1-1h2c1.09 0 2-.91 2-2M5 9v2h3c.57 0 1 .43 1 1H7c-1.64 0-3 1.36-3 3 0 1.65 1.36 3 3 3h4v-6c0-1.64-1.35-3-3-3m7 2h2c.57 0 1 .43 1 1v3c0 .57-.43 1-1 1h-1c-.57 0-1-.43-1-1m-8-1h2v2H7c-.57 0-1-.43-1-1s.43-1 1-1"/></svg>

<?xml version="1.0" encoding="UTF-8"?><!DOCTYPE svg PUBLIC "-//W3C//DTD SVG 1.1//EN" "http://www.w3.org/Graphics/SVG/1.1/DTD/svg11.dtd"><svg xmlns="http://www.w3.org/2000/svg" xmlns:xlink="http://www.w3.org/1999/xlink" version="1.1" id="mdi-alphabet-cyrillic" width="24" height="24" viewBox="0 0 24 24"><path d="M16 6C14.36 6 13 7.36 13 9V15C13 16.65 14.36 18 16 18H17C18.65 18 20 16.65 20 15V12C20 10.36 18.65 9 17 9H15C15 8.44 15.44 8 16 8H18C19.09 8 20 7.09 20 6M5 9V11H8C8.57 11 9 11.43 9 12H7C5.36 12 4 13.36 4 15C4 16.65 5.36 18 7 18H11V12C11 10.36 9.65 9 8 9M15 11H17C17.57 11 18 11.43 18 12V15C18 15.57 17.57 16 17 16H16C15.43 16 15 15.57 15 15M7 14H9V16H7C6.43 16 6 15.57 6 15C6 14.43 6.43 14 7 14Z" /></svg>
